images/alignment.svg

<svg width='41' height='39' viewBox='0 0 41 39' class='svg-fill' xmlns='http://www.w3.org/2000/svg'><path d='M20.208 11.985c3.304 0 5.99-2.688 5.99-5.993C26.2 2.688 23.513 0 20.21 0c-3.304 0-5.993 2.688-5.993 5.992 0 3.305 2.69 5.993 5.993 5.993zm0-10.485c2.476 0 4.49 2.015 4.49 4.492 0 2.478-2.014 4.493-4.49 4.493-2.477 0-4.493-2.015-4.493-4.493 0-2.477 2.016-4.492 4.493-4.492zm15.526 27.322c-2.583 0-4.683 2.1-4.683 4.683 0 2.582 2.1 4.683 4.686 4.683 2.58 0 4.682-2.1 4.682-4.683 0-2.582-2.1-4.683-4.682-4.683zm0 7.866c-1.756 0-3.183-1.428-3.183-3.183s1.43-3.183 3.186-3.183c1.754 0 3.18 1.428 3.18 3.183s-1.426 3.183-3.18 3.183zM4.682 27.49c.414 0 .75-.336.75-.75v-5.018h14.026v5.115c0 .414.336.75.75.75s.75-.336.75-.75v-5.115H34.86v5.018c0 .414.337.75.75.75.415 0 .75-.336.75-.75v-5.768c0-.414-.335-.75-.75-.75H20.96v-6.08c0-.413-.336-.75-.75-.75s-.75.337-.75.75v6.08H4.682c-.415 0-.75.336-.75.75v5.768c0 .414.335.75.75.75zm15.526 1.332c-2.582 0-4.682 2.1-4.682 4.683 0 2.582 2.1 4.683 4.682 4.683 2.58 0 4.682-2.1 4.682-4.683 0-2.582-2.1-4.683-4.682-4.683zm0 7.866c-1.754 0-3.182-1.428-3.182-3.183s1.428-3.183 3.182-3.183 3.182 1.428 3.182 3.183-1.428 3.183-3.182 3.183zM4.682 28.822C2.1 28.822 0 30.922 0 33.505c0 2.582 2.1 4.683 4.682 4.683 2.58 0 4.68-2.1 4.68-4.683 0-2.582-2.1-4.683-4.68-4.683zm0 7.866c-1.755 0-3.182-1.428-3.182-3.183s1.427-3.183 3.182-3.183c1.754 0 3.18 1.428 3.18 3.183s-1.426 3.183-3.18 3.183z' fill='#278BC9' fill-rule='evenodd'/></svg>

<?xml version="1.0" encoding="UTF-8" standalone="no"?>
<svg width="41px" height="39px" viewBox="0 0 41 39" version="1.1" xmlns="http://www.w3.org/2000/svg" xmlns:xlink="http://www.w3.org/1999/xlink">
    <!-- Generator: Sketch 3.6.1 (26313) - http://www.bohemiancoding.com/sketch -->
    <title>alignment</title>
    <desc>Created with Sketch.</desc>
    <defs></defs>
    <g id="Page-1" stroke="none" stroke-width="1" fill="none" fill-rule="evenodd">
        <path d="M20.208,11.985 C23.512,11.985 26.199,9.297 26.199,5.992 C26.199,2.688 23.512,0 20.208,0 C16.904,0 14.215,2.688 14.215,5.992 C14.215,9.297 16.904,11.985 20.208,11.985 L20.208,11.985 Z M20.208,1.5 C22.684,1.5 24.699,3.515 24.699,5.992 C24.699,8.47 22.684,10.485 20.208,10.485 C17.731,10.485 15.715,8.47 15.715,5.992 C15.715,3.515 17.731,1.5 20.208,1.5 L20.208,1.5 Z M35.734,28.822 C33.151,28.822 31.051,30.923 31.051,33.505 C31.051,36.087 33.151,38.188 35.734,38.188 C38.315,38.188 40.416,36.087 40.416,33.505 C40.416,30.923 38.315,28.822 35.734,28.822 L35.734,28.822 Z M35.734,36.688 C33.978,36.688 32.551,35.26 32.551,33.505 C32.551,31.75 33.978,30.322 35.734,30.322 C37.488,30.322 38.915,31.75 38.915,33.505 C38.915,35.26 37.488,36.688 35.734,36.688 L35.734,36.688 Z M4.682,27.49 C5.096,27.49 5.432,27.154 5.432,26.74 L5.432,21.722 L19.458,21.722 L19.458,26.837 C19.458,27.251 19.794,27.587 20.208,27.587 C20.622,27.587 20.958,27.251 20.958,26.837 L20.958,21.722 L34.861,21.722 L34.861,26.74 C34.861,27.154 35.197,27.49 35.611,27.49 C36.025,27.49 36.361,27.154 36.361,26.74 L36.361,20.972 C36.361,20.558 36.025,20.222 35.611,20.222 L20.958,20.222 L20.958,14.143 C20.958,13.729 20.622,13.393 20.208,13.393 C19.794,13.393 19.458,13.729 19.458,14.143 L19.458,20.222 L4.682,20.222 C4.267,20.222 3.932,20.558 3.932,20.972 L3.932,26.74 C3.932,27.154 4.267,27.49 4.682,27.49 L4.682,27.49 Z M20.208,28.822 C17.626,28.822 15.526,30.923 15.526,33.505 C15.526,36.087 17.626,38.188 20.208,38.188 C22.789,38.188 24.89,36.087 24.89,33.505 C24.89,30.923 22.789,28.822 20.208,28.822 L20.208,28.822 Z M20.208,36.688 C18.454,36.688 17.026,35.26 17.026,33.505 C17.026,31.75 18.454,30.322 20.208,30.322 C21.962,30.322 23.39,31.75 23.39,33.505 C23.39,35.26 21.962,36.688 20.208,36.688 L20.208,36.688 Z M4.682,28.822 C2.1,28.822 0,30.923 0,33.505 C0,36.087 2.1,38.188 4.682,38.188 C7.263,38.188 9.363,36.087 9.363,33.505 C9.363,30.923 7.263,28.822 4.682,28.822 L4.682,28.822 Z M4.682,36.688 C2.927,36.688 1.5,35.26 1.5,33.505 C1.5,31.75 2.927,30.322 4.682,30.322 C6.436,30.322 7.863,31.75 7.863,33.505 C7.863,35.26 6.436,36.688 4.682,36.688 L4.682,36.688 Z" id="alignment" fill="#278BC9"></path>
    </g>
</svg>
